x-pack/platform/packages/shared/kbn-inference-endpoint-ui-common/src/components/providers/assets/images/open_ai.svg

<svg width="32" height="32" viewBox="0 0 32 32" fill="none" xmlns="http://www.w3.org/2000/svg">
<path d="M28.1537 13.4601C28.4721 12.5178 28.5826 11.5176 28.4776 10.5285C28.3727 9.53937 28.0547 8.58469 27.5457 7.73014C26.7865 6.43008 25.6346 5.40425 24.2557 4.80014C22.8693 4.19126 21.327 4.03247 19.8457 4.34614C19.175 3.60107 18.3535 3.00725 17.4357 2.60414C16.5153 2.19969 15.52 1.99388 14.5147 2.00014C13.0027 1.99593 11.5276 2.46676 10.2977 3.34614C9.07577 4.21901 8.16395 5.4587 7.69468 6.88514C6.70973 7.08379 5.77797 7.48866 4.96068 8.07314C4.14712 8.65428 3.46726 9.40268 2.96668 10.2681C2.20588 11.5589 1.88068 13.0602 2.03916 14.5501C2.19764 16.04 2.83138 17.4393 3.84668 18.5411C3.52841 19.4833 3.41787 20.4832 3.52265 21.4721C3.62743 22.4611 3.94505 23.4156 4.45368 24.2701C5.21284 25.5702 6.36472 26.596 7.74368 27.2001C9.13 27.809 10.6724 27.9678 12.1537 27.6541C12.824 28.3992 13.6452 28.993 14.5627 29.3961C15.4827 29.8001 16.4787 30.0061 17.4857 30.0001C18.9986 30.0053 20.4748 29.5348 21.7057 28.6551C22.9291 27.7816 23.8417 26.5404 24.3107 25.1121C25.2956 24.9139 26.2274 24.5094 27.0447 23.9251C27.858 23.3436 28.5376 22.5949 29.0377 21.7291C29.7974 20.4383 30.1216 18.9373 29.9624 17.448C29.8032 15.9587 29.1691 14.5602 28.1537 13.4591V13.4601ZM17.5437 28.1701C16.1317 28.1701 15.0387 27.7421 14.0837 26.9551C14.1267 26.9321 14.2027 26.8911 14.2517 26.8611L19.9017 23.6411C20.0423 23.5619 20.1594 23.4468 20.241 23.3074C20.3225 23.1681 20.3655 23.0096 20.3657 22.8481V14.9881L22.7547 16.3481C22.767 16.3545 22.7776 16.3638 22.7856 16.3751C22.7936 16.3864 22.7987 16.3994 22.8007 16.4131V22.9211C22.8007 25.8731 20.3097 28.1701 17.5437 28.1701ZM6.06268 23.3541C5.43989 22.2948 5.21478 21.0484 5.42768 19.8381C5.46968 19.8631 5.54268 19.9081 5.59568 19.9381L11.2457 23.1581C11.3867 23.2396 11.5468 23.2825 11.7097 23.2825C11.8726 23.2825 12.0326 23.2396 12.1737 23.1581L19.0717 19.2281V21.9481C19.0725 21.962 19.0698 21.9759 19.0639 21.9885C19.0579 22.0011 19.0489 22.012 19.0377 22.0201L13.3267 25.2751C12.1017 25.97 10.6532 26.1574 9.29168 25.7971C7.9348 25.441 6.77475 24.5628 6.06268 23.3541ZM4.57368 11.1841C5.19855 10.1168 6.17811 9.30248 7.34168 8.88314V15.5151C7.34012 15.6769 7.38245 15.8361 7.46415 15.9757C7.54586 16.1154 7.66388 16.2302 7.80568 16.3081L14.7027 20.2381L12.3147 21.5981C12.303 21.6058 12.2896 21.6105 12.2757 21.6119C12.2617 21.6133 12.2477 21.6113 12.2347 21.6061L6.52068 18.3491C5.91893 18.0071 5.39058 17.5497 4.96588 17.0032C4.54118 16.4567 4.22847 15.8317 4.04568 15.1641C3.86493 14.499 3.81844 13.8045 3.90892 13.1211C3.9994 12.4378 4.22604 11.7793 4.57368 11.1841ZM24.1967 15.6901L17.2987 11.7601L19.6867 10.4001C19.6984 10.3925 19.7118 10.3877 19.7257 10.3863C19.7396 10.385 19.7537 10.3869 19.7667 10.3921L25.4797 13.6471C26.3517 14.1436 27.0642 14.8783 27.5337 15.7651C28.0004 16.6478 28.2026 17.6464 28.116 18.641C28.0295 19.6357 27.6578 20.5844 27.0457 21.3731C26.4299 22.1683 25.6011 22.7723 24.6557 23.1151V16.4821C24.6574 16.3211 24.6157 16.1625 24.535 16.0231C24.4542 15.8837 24.3373 15.7687 24.1967 15.6901ZM26.5737 12.1571C26.5181 12.1235 26.4621 12.0905 26.4057 12.0581L20.7557 8.83814C20.6145 8.75688 20.4545 8.71412 20.2917 8.71412C20.1288 8.71412 19.9688 8.75688 19.8277 8.83814L12.9297 12.7681V10.0461C12.9289 10.0322 12.9315 10.0184 12.9375 10.0058C12.9434 9.99321 12.9524 9.98233 12.9637 9.97414L18.6757 6.72314C19.5524 6.22471 20.5517 5.98299 21.5593 6.02561C22.5669 6.06823 23.5422 6.39346 24.3737 6.96414C25.1997 7.53109 25.8467 8.32209 26.2387 9.24414C26.6287 10.1641 26.7447 11.1741 26.5737 12.1571ZM11.6317 17.0091L9.24168 15.6491C9.22917 15.643 9.21841 15.6339 9.21037 15.6225C9.20233 15.6112 9.19728 15.598 9.19568 15.5841V9.07514C9.19668 8.07814 9.48568 7.10214 10.0277 6.26114C10.5729 5.41768 11.3466 4.7466 12.2587 4.32614C13.1746 3.90382 14.1908 3.74739 15.1914 3.8747C16.192 4.002 17.1366 4.40791 17.9177 5.04614C17.8611 5.07604 17.8051 5.10704 17.7497 5.13914L12.0997 8.35914C11.959 8.43838 11.8418 8.55353 11.7601 8.69284C11.6784 8.83216 11.6351 8.99064 11.6347 9.15214L11.6317 17.0091ZM12.9287 14.2491L16.0007 12.5001L19.0727 14.2501V17.7501L16.0007 19.4991L12.9287 17.7491V14.2491Z" fill="black"/>
</svg>

<svg xmlns="http://www.w3.org/2000/svg" width="32" height="32" fill="none"><path fill="#000" d="M28.154 13.46a6.89 6.89 0 0 0-.608-5.73 7.1 7.1 0 0 0-3.29-2.93 7.24 7.24 0 0 0-4.41-.454 7.1 7.1 0 0 0-2.41-1.742A7.15 7.15 0 0 0 14.515 2a7.2 7.2 0 0 0-4.217 1.346 7.06 7.06 0 0 0-2.603 3.54A7.1 7.1 0 0 0 4.96 8.072a7 7 0 0 0-1.994 2.195 6.98 6.98 0 0 0 .88 8.273 6.89 6.89 0 0 0 .607 5.73 7.1 7.1 0 0 0 3.29 2.93 7.24 7.24 0 0 0 4.41.453 7.1 7.1 0 0 0 2.409 1.742c.92.404 1.916.61 2.923.604a7.2 7.2 0 0 0 4.22-1.345 7.06 7.06 0 0 0 2.605-3.543 7.1 7.1 0 0 0 2.734-1.187 7 7 0 0 0 1.993-2.196 6.98 6.98 0 0 0-.884-8.27zm-10.61 14.71c-1.412 0-2.505-.428-3.46-1.215.043-.023.119-.064.168-.094l5.65-3.22a.91.91 0 0 0 .464-.793v-7.86l2.389 1.36a.09.09 0 0 1 .046.065v6.508c0 2.952-2.491 5.25-5.257 5.25M6.063 23.354a5.17 5.17 0 0 1-.635-3.516c.042.025.115.07.168.1l5.65 3.22a.93.93 0 0 0 .928 0l6.898-3.93v2.72a.08.08 0 0 1-.034.072l-5.711 3.255a5.39 5.39 0 0 1-4.035.522 5.31 5.31 0 0 1-3.23-2.443m-1.49-12.17a5.28 5.28 0 0 1 2.769-2.3v6.631a.9.9 0 0 0 .464.793l6.897 3.93-2.388 1.36a.09.09 0 0 1-.08.008L6.52 18.35a5.26 5.26 0 0 1-2.475-3.185 5.2 5.2 0 0 1 .528-3.98m19.624 4.506-6.898-3.93 2.388-1.36a.09.09 0 0 1 .08-.008l5.713 3.255a5.3 5.3 0 0 1 2.054 2.118 5.19 5.19 0 0 1-.488 5.608 5.3 5.3 0 0 1-2.39 1.742v-6.633a.9.9 0 0 0-.46-.792m2.377-3.533-.168-.099-5.65-3.22a.93.93 0 0 0-.928 0l-6.898 3.93v-2.722a.08.08 0 0 1 .034-.072l5.712-3.25a5.38 5.38 0 0 1 5.698.24 5.26 5.26 0 0 1 1.865 2.28c.39.92.506 1.93.335 2.913M11.632 17.01l-2.39-1.36a.08.08 0 0 1-.046-.065V9.075c0-.997.29-1.973.832-2.814a5.3 5.3 0 0 1 2.23-1.935 5.38 5.38 0 0 1 5.66.72q-.085.045-.168.093L12.1 8.36a.91.91 0 0 0-.465.793zm1.297-2.76L16 12.5l3.072 1.75v3.5L16 19.5l-3.072-1.75z"/></svg>
